X:1
T:la Bergere de Coulandon
A:France
Z:abc transcription Simon Wascher
M:2/4
L:1/8
K:G
c2Bc | A3B/2c/2 | d3/2c/2 BA | B2 G3/2B/2 |\
c2Bc | A3B/2c/2 | d3/2c/2 BA |1 d3 :|\
                             [2 G4 ||
|:\
A3/2B/2 AG | F3G | A3/2B/2 cA | B2 G2 |\
A3/2B/2 AG | F3G | A3/2B/2 AF |1 G4 :|\
                              [2 G3 |]
